Origami/64x64/apps/system-suspend.svg

<svg width="64" height="64" version="1" xmlns="http://www.w3.org/2000/svg">
 <path d="M 59.958,31.828 A 28,28 0 0 1 32,59 28,28 0 0 1 4.044,32.172 28,28 0 0 0 4,33 28,28 0 0 0 32,61 28,28 0 0 0 60,33 28,28 0 0 0 59.958,31.828 Z" style="opacity:.2"/>
 <circle cx="32" cy="32" r="28" style="fill:#41a5c7"/>
 <path d="m50 33a18 18 0 0 0 -18 -18 18 18 0 0 0 -18 18 18 18 0 0 0 18 18 18 18 0 0 0 18 -18zm-4 0a14 14 0 0 1 -14 14 14 14 0 0 1 -14 -14 14 14 0 0 1 14 -14 14 14 0 0 1 14 14zm-6 0c0-1.108-0.892-2-2-2h-12c-1.108 0-2 0.892-2 2s0.892 2 2 2h12c1.108 0 2-0.892 2-2z" style="opacity:.2"/>
 <path d="m50 32a18 18 0 0 0 -18 -18 18 18 0 0 0 -18 18 18 18 0 0 0 18 18 18 18 0 0 0 18 -18zm-4 0a14 14 0 0 1 -14 14 14 14 0 0 1 -14 -14 14 14 0 0 1 14 -14 14 14 0 0 1 14 14zm-6 0c0-1.108-0.892-2-2-2h-12c-1.108 0-2 0.892-2 2s0.892 2 2 2h12c1.108 0 2-0.892 2-2z" style="fill:#ffffff"/>
 <path d="M 31.998047 4 A 28 28 0 0 0 4 32 A 28 28 0 0 0 4.0175781 32.492188 A 28 28 0 0 1 31.998047 5 L 32 5 A 28 28 0 0 1 59.972656 32.5 A 28 28 0 0 0 59.998047 32 A 28 28 0 0 0 32 4 L 31.998047 4 z" style="fill:#ffffff;opacity:.2"/>
</svg>

<svg xmlns="http://www.w3.org/2000/svg" width="64" height="64" version="1">
 <path style="opacity:0.2" d="M 59.958,31.828 A 28,28 0 0 1 32,59 28,28 0 0 1 4.044,32.172 28,28 0 0 0 4,33 28,28 0 0 0 32,61 28,28 0 0 0 60,33 28,28 0 0 0 59.958,31.828 Z"/>
 <circle style="fill:#41a5c7" cx="32" cy="32" r="28"/>
 <path style="opacity:0.2" d="M 50,33 A 18,18 0 0 0 32,15 18,18 0 0 0 14,33 18,18 0 0 0 32,51 18,18 0 0 0 50,33 Z m -4,0 A 14,14 0 0 1 32,47 14,14 0 0 1 18,33 14,14 0 0 1 32,19 14,14 0 0 1 46,33 Z m -6,0 c 0,-1.108 -0.892,-2 -2,-2 l -12,0 c -1.108,0 -2,0.892 -2,2 0,1.108 0.892,2 2,2 l 12,0 c 1.108,0 2,-0.892 2,-2 z"/>
 <path style="fill:#ffffff" d="M 50,32 A 18,18 0 0 0 32,14 18,18 0 0 0 14,32 18,18 0 0 0 32,50 18,18 0 0 0 50,32 Z m -4,0 A 14,14 0 0 1 32,46 14,14 0 0 1 18,32 14,14 0 0 1 32,18 14,14 0 0 1 46,32 Z m -6,0 c 0,-1.108 -0.892,-2 -2,-2 l -12,0 c -1.108,0 -2,0.892 -2,2 0,1.108 0.892,2 2,2 l 12,0 c 1.108,0 2,-0.892 2,-2 z"/>
 <path style="opacity:0.2;fill:#ffffff" d="M 31.998047 4 A 28 28 0 0 0 4 32 A 28 28 0 0 0 4.0175781 32.492188 A 28 28 0 0 1 31.998047 5 L 32 5 A 28 28 0 0 1 59.972656 32.5 A 28 28 0 0 0 59.998047 32 A 28 28 0 0 0 32 4 L 31.998047 4 z"/>
</svg>
